X:353911115136100
T:6-9-5-3-8-2-4-7-7-11-10-6-10-4-12-7
%%setfont-1 Courier-Bold 8
T:$1K.516f::148:84:113:63:99:122:110:91:138:4:19:125:137:58:44:151::$0
T:$1Perm. No.: 353911115136100$0
M:3/8
L:1/8
Q:1/8=111
%%staves [1 2]
V:1 clef=treble
V:2 clef=bass
K:C
%1
[V:1]|: c'/b/c'/g/e/c/ |\
[V:2]|: [E,2C,2]z |\
%2
[V:1] c/G/e/c/g/e/ |\
[V:2] [E,2C,2]z |\
%3
[V:1] fdB |\
[V:2] [B,2G,2]z |\
%4
[V:1] e/c/B/c/G |\
[V:2] C,2z |\
%5
[V:1] ^fad |\
[V:2] [A,2C,2][A,C,] |\
%6
[V:1] g/^f/g/b/d |\
[V:2] [D,B,,][D,B,,][G,B,,] |\
%7
[V:1] ([d/B/][c/A/])([c/A/][B/G/])([B/G/][A/^F/]) \
[V:2] C,D,D,, \
%8a
[V:1]|1 [g2d2B2G2]z :|2
[V:2]|1 G,,G,/=F,/E,/D,/ :|2
%8b
[V:1] [g2d2B2G2]z |:\
[V:2] G,,B,/G,/^F,/E,/ |:\
%9
[V:1] [^fdA]!trill!f2 |\
[V:2] D,,/D,/^C,/D,/^C,/D,/ |\
%10
[V:1] g!trill!d2 |\
[V:2] G,,/B,,/G,B, |\
%11
[V:1] e/c/eg |\
[V:2] [G,2C,2][E,C,] |\
%12
[V:1] g/e/d/B/G |\
[V:2] G,G,,z |\
%13
[V:1] cGe |\
[V:2] [E,/C,/]G,/[E,/C,/]G,/[E,/C,/]G,/ |\
%14
[V:1] gec |\
[V:2] [E,/C,/]G,/[E,/C,/]G,/[E,/C,/]G,/ |\
%15
[V:1] Af/d/a/g/ |\
[V:2] F,2G, |\
%16
[V:1] c2z :|]
[V:2] C,G,,C,, :|]
